X:36
T:Jig of Slurs
M:6/8
L:1/8
R:prob. Scottish
N:Note: the 3rd and 4th parts are in G
K:D
Add dcd|Bdd Add|Bdd Add|Bee edB|Add dcd|Bdd Add|Bdd cde|fdc d2B:|
|A2f fef|a2f fed|B2e ede|f2f edB|A2f fef|a2f fed|Bdd cde|fdc d2B:||
K:G G2g gfg|agf gdB|G2g gfg|agf gab|G2g gfg|agf gdB|e2e efg|fed edB:|
|GBB Bdd|dee edB|GBB Bdd|dee efg|GBB Bdd|dee edB|e2e efg|fed edB:||
